assets/svg/Parking.svg

<svg width="24" height="24" viewBox="0 0 24 24" fill="none" xmlns="http://www.w3.org/2000/svg">
<path fill-rule="evenodd" clip-rule="evenodd" d="M9 7V18H11V14H14C15.1046 14 16 13.1046 16 12V9C16 7.89543 15.1046 7 14 7H9ZM14 9H11V12H14V9Z" fill="#081B31"/>
<path fill-rule="evenodd" clip-rule="evenodd" d="M22 12C22 17.5228 17.5228 22 12 22C6.47715 22 2 17.5228 2 12C2 6.47715 6.47715 2 12 2C17.5228 2 22 6.47715 22 12ZM20 12C20 16.4183 16.4183 20 12 20C7.58172 20 4 16.4183 4 12C4 7.58172 7.58172 4 12 4C16.4183 4 20 7.58172 20 12Z" fill="#081B31"/>
</svg>

<svg width="24" height="24" fill="none" xmlns="http://www.w3.org/2000/svg">
    <path fill-rule="evenodd" clip-rule="evenodd" d="M9 7v11h2v-4h3a2 2 0 0 0 2-2V9a2 2 0 0 0-2-2H9Zm5 2h-3v3h3V9Z" fill="#081B31"/>
    <path fill-rule="evenodd" clip-rule="evenodd" d="M22 12c0 5.523-4.477 10-10 10S2 17.523 2 12 6.477 2 12 2s10 4.477 10 10Zm-2 0a8 8 0 1 1-16 0 8 8 0 0 1 16 0Z" fill="#081B31"/>
</svg>
